!!!OTL: Das alt Chatholisch Triersch Christ liedlein
!!!ARE: Europa, Mitteleuropa, Deutschland
!!!SCT: A0515
!!!YEM: Copyright 1995, estate of Helmut Schaffrath.
**kern
*ICvox
*Ivox
!! Mixed meters:  4/2; 6/2
*M6/2
*k[b-]
*F:
{1cc
=1
2cc
2cc
2dd
2cc
=2
1cc
1a}
=3
{1b-
=4
2a
1g
1f
2e
=5
*M4/2
1f}
{1cc
=6
2cc
2cc
2dd
2cc
=7
1cc
1a}
=8
{1b-
=9
*M6/2
2a
1g
1f
2e
=10
*M4/2
1f
2r}
{2a
=11
2g
2e
2f
2d
=12
1c
2r}
{2cc
=13
2cc
2cc
2dd
2cc
=14
*M6/2
1cc
1a
1b-
=15
2a
1g
1f
2e
=16
0f}
==
!!!AGN: Romanze, Ballade, Lied, religioeses Lied
!! Speiersches Gsgb. 1600 fol. 29.
!!!ONB: ESAC (Essen Associative Code) Database: ALTDEU
!!!AMT: irregular
!!!AIN: vox
!!!EED: Helmut Schaffrath
!!!EEV: 1.0
*-
